!!!!SEGMENT: pl-kk--kk-i-7--073_asola-giovanni-matteo--dum-complerentur.krn
!!!cenid: 16xx:912
!!!COM: Asola, Giovanni Matteo
!!!COM-rismID: pe20000387
!!!CDT: <=1532-1609/10/01
!!!CNT: Italian
!!!OTL: Dum complerentur
!!!PDT:
!!!AGN: Sacred
!!!YEC: Copyright 2022 Narodowy Instytut Fryderyka Chopina (https://polishscores.org)
!!!YEM: License CC-BY-4.0 (https://creativecommons.org/licenses/by/4.0)
!!!SMS-siglum: PL-Kk
!!!SMS-shelfmark: Kk.I.7
!!!SMS-shelfwork: 073 W
!!!SMS-variant:
!!!SMS-altvar:
!!!NIFC-rismSourceID: 300258077
!!!NIFC-rismChildID: 300258150
!!!NIFC-islandoraID: pl-kk:1956
!!!URL-pdf-islandora: https://repozytorium.nifc.pl/islandora/object/pl-kk%3A1956/datastream/PDF/view
!!!URL-scan: https://polish.musicsources.pl/pl/lokalizacje/galeria/rekopisy/6140 @EN{Scan on Polish Music Sources Website} @PL{Skany w portalu Dziedzictwo Muzyki Polskiej w otwartym dostępie}
!!!IIIF: https://repozytorium.nifc.pl/islandora/object/pl-kk%3A1956/datastream/IIIF/view
!!!ONB-nifc: UWAGA: C (skan 0065, s.13), A (0151-0152, s.13-14), T (0228, s.13), B (0315, s.13). Następny utwór: Domie rex Deus Abraham
!!!AIN: 1 alto 1 bass 2 tenor
!!!key: G:mix
**kern	**text	**mod-text	**kern	**text	**mod-text	**kern	**text	**mod-text	**kern	**text	**mod-text
*part4	*part4	*part4	*part3	*part3	*part3	*part2	*part2	*part2	*part1	*part1	*part1
*staff4	*staff4	*staff4	*staff3	*staff3	*staff3	*staff2	*staff2	*staff2	*staff1	*staff1	*staff1
*I"BASSVS.	*	*	*I"TENOR.	*	*	*I"ALTVS.	*	*	*I"CANTVS.	*	*
*mI"Basso	*	*	*mI"Tenore II	*	*	*mI"Tenore I	*	*	*mI"Alto	*	*
*I'B	*	*	*I'T	*	*	*I'A	*	*	*I'S	*	*
*	*	*	*mI'T 2	*	*	*mI'T 1	*	*	*mI'A	*	*
*ICvox	*	*	*ICvox	*	*	*ICvox	*	*	*ICvox	*	*
*Ibass	*	*	*Itenor	*	*	*Itenor	*	*	*Ialto	*	*
*clefF4	*	*	*clefC4	*	*	*clefC4	*	*	*clefC3	*	*
*	*	*	*mclefGv2	*	*	*mclefGv2	*	*	*mclefG2	*	*
*k[]	*	*	*k[]	*	*	*k[]	*	*	*k[]	*	*
*G:mix	*	*	*G:mix	*	*	*G:mix	*	*	*G:mix	*	*
*M2/1	*	*	*M2/1	*	*	*M2/1	*	*	*M2/1	*	*
*met(C|)	*	*	*met(C|)	*	*	*met(C|)	*	*	*met(C|)	*	*
*mmet(c|)	*	*	*mmet(c|)	*	*	*mmet(c|)	*	*	*mmet(c|)	*	*
=1-	=1-	=1-	=1-	=1-	=1-	=1-	=1-	=1-	=1-	=1-	=1-
!LO:MO:null:mod=*null	!	!	!LO:MO:null:mod=*null	!	!	!LO:MO:null:mod=*null	!	!	!LO:MO:null:mod=*null	!	!
*all\right	*	*	*all\right	*	*	*all\right	*	*	*all\right	*	*
*xywh-#315:7277,455,6250,1058	*	*	*xywh-#228:7227,405,6160,960	*	*	*xywh-#151:7505,2960,5971,1097	*	*	*xywh-#65:7249,1155,6064,866	*	*
!	!	!	!	!	!	!LO:TX:t=P:problem=kreska pseudotaktowa	!	!	!	!	!
1.G	Dum	Dum	00r	.	.	0r	.	.	0r	.	.
*2\right	*	*	*	*	*	*	*	*	*	*	*
!LO:TX:t=P:problem=kreska pseudotaktowa	!	!	!	!	!	!	!	!	!	!	!
2E\	com-	com-	.	.	.	.	.	.	.	.	.
=2-	=2-	=2-	=2-	=2-	=2-	=2-	=2-	=2-	=2-	=2-	=2-
!	!	!	!	!	!	!	!	!	!LO:TX:t=P:problem=kreska pseudotaktowa	!	!
1F	-ple-	-ple-	.	.	.	2r	.	.	1r	.	.
.	.	.	.	.	.	1d	Dum	Dum	.	.	.
1G	-ren-	-ren-	.	.	.	.	.	.	1.g	Dum	Dum
*	*	*	*	*	*	*2\right	*	*	*	*	*
!	!	!	!	!	!	!LO:TX:t=P:problem=kreska pseudotaktowa	!	!	!	!	!
.	.	.	.	.	.	2B\	com-	com-	.	.	.
=3-	=3-	=3-	=3-	=3-	=3-	=3-	=3-	=3-	=3-	=3-	=3-
!LO:TX:t=P:problem=kreska pseudotaktowa	!	!	!LO:TX:t=P:problem=kreska pseudotaktowa	!	!	!	!	!	!	!	!
1C	-tur	-tur	1r	.	.	1c	-ple-	-ple-	.	.	.
*	*	*	*	*	*	*	*	*	*2\right	*	*
.	.	.	.	.	.	.	.	.	2e\	Com-	com-
2r	.	.	2r	.	.	1d	-ren-	-ren-	1f	-ple-	-ple-
*	*ij	*ij	*	*	*	*	*	*	*	*	*
1GG/	Dum	dum	1d\	Dum	Dum	.	.	.	.	.	.
=4-	=4-	=4-	=4-	=4-	=4-	=4-	=4-	=4-	=4-	=4-	=4-
!	!	!	!	!	!	!	!	!	!LO:TX:t=P:problem=kreska pseudotaktowa	!	!
.	.	.	.	.	.	2G/	-tur	-tur	1g	-ren-	-ren-
*	*	*	*2\right	*	*	*	*	*	*	*	*
!LO:TX:t=P:problem=kreska pseudotaktowa	!	!	!LO:TX:t=P:problem=kreska pseudotaktowa	!	!	!LO:TX:t=P:problem=kreska pseudotaktowa	!	!	!	!	!
2G\	com-	com-	2B\	com-	com-	2G/	di-	di-	.	.	.
2F\	-ple-	-ple-	1c	-ple-	-ple-	2A/	-es	-es	2c/	-tur	-tur
*	*	*	*	*	*	*	*	*	*	*ij	*ij
2E\	.	.	.	.	.	1c\	Pen-	Pen-	2e\	Dum	dum
=5-	=5-	=5-	=5-	=5-	=5-	=5-	=5-	=5-	=5-	=5-	=5-
!LO:TX:t=P:problem=kreska pseudotaktowa	!	!	!LO:TX:t=P:problem=kreska pseudotaktowa	!	!	!	!	!	!	!	!
1D	-ren-	-ren-	1d	-ren-	-ren-	.	.	.	2f\	Com-	com-
!	!	!	!	!	!	!LO:TX:t=P:problem=kreska pseudotaktowa	!	!	!LO:TX:t=P:problem=kreska pseudotaktowa	!	!
.	.	.	.	.	.	2B\	-te-	-te-	2f\	-ple-	-ple-
!LO:TX:t=P:problem=kreska pseudotaktowa	!	!	!	!	!	!	!	!	!	!	!
1C	-tur	-tur	2G/	.	-tur	2.c\	-co-	-co-	1e	-ren-	-ren-
*	*Xij	*Xij	*	*	*	*	*	*	*	*	*
.	.	.	1A\	-tur	di-	.	.	.	.	.	.
.	.	.	.	.	.	4B\	.	.	.	.	.
=6-	=6-	=6-	=6-	=6-	=6-	=6-	=6-	=6-	=6-	=6-	=6-
!	!	!	!	!	!	!	!	!	!LO:TX:t=P:problem=kreska pseudotaktowa	!	!
1D	Di-	di-	.	.	.	1A	.	.	1d	-tur	-tur
*	*	*	*	*	*	*	*	*	*	*Xij	*Xij
!	!	!	!LO:TX:t=P:problem=kreska pseudotaktowa	!	!	!	!	!	!	!	!
.	.	.	2F/	-di-	-es	.	.	.	.	.	.
2BB/	-es	-es	2G/	-es	Pen-	2B,<\	-ſtes	-ſtes	2r	.	.
2.C/	Pen-	Pen-	2.E/	Pen-	-te-	2.G/	di-	di-	1e\	di-	di-
.	.	.	.	.	.	.	.	.	.	.	.
=7-	=7-	=7-	=7-	=7-	=7-	=7-	=7-	=7-	=7-	=7-	=7-
.	.	.	.	.	.	.	.	.	.	.	.
4BB/	.	-te-	4F/	.	.	4A/	.	.	.	.	.
!LO:TX:t=P:problem=kreska pseudotaktowa	!	!	!	!	!	!LO:TX:t=P:problem=kreska pseudotaktowa	!	!	!LO:TX:t=P:problem=kreska pseudotaktowa	!	!
2GG/	.	-co-	1G	-te-	.	2B\	.	.	2d\	-es	-es
2C/	.	.	.	.	.	2c,<\	-es	-es	2e\	Pen-	Pen-
!	!	!	!LO:TX:t=P:problem=kreska pseudotaktowa	!	!	!	!	!	!	!	!
2D/	-te-	.	2F/	.	.	4A/	Pen-	Pen-	2f\	-te-	-te-
!	!	!	!	!	!	!LO:TX:t=P:problem=kreska pseudotaktowa	!	!	!	!	!
.	.	.	.	.	.	4d\	-te-	-te-	.	.	.
*	*	*	*custos:G	*	*	*	*	*	*	*	*
!	!	!	!LO:LB:g=original	!	!	!	!	!	!	!	!
=8-	=8-	=8-	=8-	=8-	=8-	=8-	=8-	=8-	=8-	=8-	=8-
*	*	*	*xywh-#228:7346,1099,6140,901	*	*	*	*	*	*	*	*
*lig	*	*	*lig	*	*	*	*	*	*	*	*
1E	-co-	.	1G	-co-	-co-	2.B\	-co-	-co-	2e\	-co-	-co-
.	.	.	.	.	.	.	.	.	1g	.	.
.	.	.	.	.	.	4c\	.	.	.	.	.
1D	.	.	1A	.	.	1d	.	.	.	.	.
!	!	!	!	!	!	!	!	!	!LO:SIC:v:o=2f\	!	!
!	!	!	!	!	!	!	!	!	!LO:TX:t=P:problem=kreska pseudotaktowa	!	!
.	.	.	.	.	.	.	.	.	2f#i	.	.
*Xlig	*	*	*Xlig	*	*	*	*	*	*	*	*
=9-	=9-	=9-	=9-	=9-	=9-	=9-	=9-	=9-	=9-	=9-	=9-
!LO:TX:t=P:problem=kreska pseudotaktowa	!	!	!LO:TX:t=P:problem=kreska pseudotaktowa	!	!	!LO:TX:t=P:problem=kreska pseudotaktowa	!	!	!	!	!
1GG	-ſtes	-ſtes	1G,<	-ſtes	-ſtes	1B,<	-ſtes,	-ſtes	1g,<	-ſtes,	-ſtes
0C	e-	e-	0G	e-	e-	0c	e-	e-	0e	e-	e-
=10-	=10-	=10-	=10-	=10-	=10-	=10-	=10-	=10-	=10-	=10-	=10-
.	.	.	.	.	.	.	.	.	.	.	.
!LO:TX:t=P:problem=kreska pseudotaktowa	!	!	!	!	!	!	!	!	!	!	!
!	!	!	!LO:TX:t=P:problem=kreska pseudotaktowa	!	!	!LO:TX:t=P:problem=kreska pseudotaktowa	!	!	!LO:TX:t=P:problem=kreska pseudotaktowa	!	!
1AA	-rant	-rant	1A	-rant	-rant	1c	-rant	-rant	1e	-rant	-rant
*custos:D	*	*	*	*	*	*	*	*	*	*	*
!LO:LB:g=original	!	!	!	!	!	!	!	!	!	!	!
=11-	=11-	=11-	=11-	=11-	=11-	=11-	=11-	=11-	=11-	=11-	=11-
*xywh-#315:7310,1083,6168,926	*	*	*	*	*	*	*	*	*	*	*
1D	o-	o-	1F	o-	o-	1A	o-	o-	1d	o-	o-
!LO:TX:t=P:problem=kreska pseudotaktowa	!	!	!LO:TX:t=P:problem=kreska pseudotaktowa	!	!	!LO:TX:t=P:problem=kreska pseudotaktowa	!	!	!	!	!
1C	-mnes	-mnes	1G	-mnes	-mnes	1c	-mnes	-mnes	1e,<	-mnes	-mnes
=12-	=12-	=12-	=12-	=12-	=12-	=12-	=12-	=12-	=12-	=12-	=12-
1.F	pa-	pa-	1.A	pa-	pa-	1.c	pa-	pa-	1.f	pa-	pa-
!	!	!	!	!	!	!LO:TX:t=P:problem=kreska pseudotaktowa	!	!	!LO:TX:t=P:problem=kreska pseudotaktowa	!	!
2F\	-ri-	-ri-	2A/	-ri-	-ri-	2c\	-ri-	-ri-	2f\	-ri-	-ri-
=13-	=13-	=13-	=13-	=13-	=13-	=13-	=13-	=13-	=13-	=13-	=13-
2F\	-ter	-ter	2A/	-ter	-ter	2c\	-ter	-ter	2f\	-ter	-ter
*	*	*	*	*	*	*custos:c	*	*	*	*	*
*	*	*	*	*	*	*xywh-#151:7477,3567,6120,1097	*	*	*	*	*
!	!	!	!	!	!	!LO:LB:g=original	!	!	!	!	!
1C	in	in	1G	in	in	1c	in	in	1e	in	in
!LO:TX:t=P:problem=kreska pseudotaktowa	!	!	!LO:TX:t=P:problem=kreska pseudotaktowa	!	!	!LO:TX:t=P:problem=kreska pseudotaktowa	!	!	!LO:TX:t=P:global:problem=rozdzielacz słów	!	!
2C/	e-	e-	2G/	e-	e-	2c\	e-	e-	2e\	e-	e-
*	*	*	*	*	*	*	*	*	*custos:d	*	*
!	!	!	!	!	!	!	!	!	!LO:LB:g=original	!	!
=14-	=14-	=14-	=14-	=14-	=14-	=14-	=14-	=14-	=14-	=14-	=14-
*	*	*	*	*	*	*	*	*	*xywh-#65:7217,1725,6233,845	*	*
!	!	!	!LO:SIC:v:o=2F/	!	!	!	!	!	!	!	!
2D/	-o-	-o-	2F#i	-o-	-o-	2A/	-o-	-o-	2d\	-o-	-o-
2C/	-dem	-dem	2G/	-dem	-dem	1c	-dem	-dem	2e\	-dem	-dem
1GG	lo-	lo-	1G	lo-	lo-	.	.	.	1d	lo-	lo-
!	!	!	!	!	!	!LO:TX:t=P:problem=kreska pseudotaktowa	!	!	!	!	!
.	.	.	.	.	.	2B\	lo-	lo-	.	.	.
=15-	=15-	=15-	=15-	=15-	=15-	=15-	=15-	=15-	=15-	=15-	=15-
!LO:TX:t=P:problem=kreska pseudotaktowa	!	!	!	!	!	!	!	!	!LO:TX:t=P:problem=kreska pseudotaktowa	!	!
1C	-co	-co	2G,</	-co	-co	2.c\	.	.	0e	-co	-co
!	!	!	!LO:TX:t=P:problem=kreska pseudotaktowa	!	!	!	!	!	!	!	!
.	.	.	2G/	et	et	.	.	.	.	.	.
.	.	.	.	.	.	4B\	.	.	.	.	.
2r	.	.	2.c\	ſu-	ſu-	2A/	.	.	.	.	.
!	!	!	!	!	!	!LO:TX:t=P:problem=kreska pseudotaktowa	!	!	!	!	!
2C/	et	et	.	.	.	2G/	-co	-co	.	.	.
.	.	.	4c\	-bi-	-bi-	.	.	.	.	.	.
=16-	=16-	=16-	=16-	=16-	=16-	=16-	=16-	=16-	=16-	=16-	=16-
2.F\	ſu-	ſu-	2A/	-to	-to	0r	.	.	2r	.	.
*	*	*	*	*ij	*ij	*	*	*	*	*	*
!	!	!	!LO:TX:t=P:problem=kreska pseudotaktowa	!	!	!	!	!	!	!	!
.	.	.	2A/	et	et	.	.	.	2c/	et	et
!LO:TX:t=P:problem=kreska pseudotaktowa	!	!	!	!	!	!	!	!	!	!	!
4F\	-bi-	-bi-	.	.	.	.	.	.	.	.	.
2D/	-to	-to	2.d\	ſu-	ſu-	.	.	.	2.f\	Su-	su-
*	*ij	*ij	*	*	*	*	*	*	*	*	*
2D/	et	et	.	.	.	.	.	.	.	.	.
!	!	!	!	!	!	!	!	!	!LO:TX:t=P:problem=kreska pseudotaktowa	!	!
.	.	.	4d\	-bi-	-bi-	.	.	.	4f\	-bi-	-bi-
=17-	=17-	=17-	=17-	=17-	=17-	=17-	=17-	=17-	=17-	=17-	=17-
2.G\	ſu-	ſu-	2B\	-to	-to	1r	.	.	2d,<\	-to	-to
*	*	*	*	*Xij	*Xij	*	*	*	*	*	*
.	.	.	1G	et	et	.	.	.	2d\	et	et
!LO:TX:t=P:problem=kreska pseudotaktowa	!	!	!	!	!	!	!	!	!	!	!
4G\	-bi-	-bi-	.	.	.	.	.	.	.	.	.
2E\	-to	-to	.	.	.	2r	.	.	2.g\	Su-	su-
*	*Xij	*Xij	*	*	*	*	*	*	*	*	*
!	!	!	!	!	!	!LO:TX:t=P:problem=kreska pseudotaktowa	!	!	!	!	!
1C/	et	et	2.c\	ſu-	ſu-	2G/	et	et	.	.	.
.	.	.	.	.	.	.	.	.	4g\	-bi-	-bi-
=18-	=18-	=18-	=18-	=18-	=18-	=18-	=18-	=18-	=18-	=18-	=18-
.	.	.	.	.	.	2.c\	ſu-	ſu-	2e\	-tò	-to
.	.	.	4c\	-bi-	-bi-	.	.	.	.	.	.
*	*	*	*	*	*	*	*	*	*	*ij	*ij
!	!	!	!LO:TX:t=P:problem=kreska pseudotaktowa	!	!	!	!	!	!	!	!
2.F\	ſu-	ſu-	2A/	-to	-to	.	.	.	1c	et	et
.	.	.	.	.	.	4c\	-bi-	-bi-	.	.	.
*	*	*	*	*ij	*ij	*	*	*	*	*	*
.	.	.	2A/	et	et	2A,</	-to	-to	.	.	.
4F\	-bi-	-bi-	.	.	.	.	.	.	.	.	.
*	*	*	*	*	*	*	*ij	*ij	*	*	*
!LO:TX:t=P:problem=kreska pseudotaktowa	!	!	!	!	!	!LO:TX:t=P:problem=kreska pseudotaktowa	!	!	!LO:TX:t=P:problem=kreska pseudotaktowa, między nutą a kropką	!	!
2D/	-to	-to	2.d\	ſu-	ſu-	2A/	et	et	2.f\	Su-	su-
=19-	=19-	=19-	=19-	=19-	=19-	=19-	=19-	=19-	=19-	=19-	=19-
*	*ij	*ij	*	*	*	*	*	*	*	*	*
2D/	et	et	.	.	.	2.d\	ſu-	ſu-	.	.	.
.	.	.	4d\	-bi-	-bi-	.	.	.	4f\	-bi-	-bi-
*	*	*	*custos:B	*	*	*	*	*	*	*	*
*	*	*	*xywh-#228:7296,1663,6120,990	*	*	*	*	*	*	*	*
!	!	!	!LO:LB:g=original	!	!	!	!	!	!LO:TX:t=P:problem=kreska pseudotaktowa	!	!
2.G\	ſu-	ſu-	1B,<	-to	-to	.	.	.	2d,<\	-tò	-to
*	*	*	*	*Xij	*Xij	*	*	*	*	*Xij	*Xij
.	.	.	.	.	.	4d\	-bi-	-bi-	.	.	.
.	.	.	.	.	.	2B,<\	-to	-to	1e	fa-	fa-
*	*	*	*	*	*	*	*Xij	*Xij	*	*	*
4G\	-bi-	-bi-	.	.	.	.	.	.	.	.	.
!LO:TX:t=P:problem=kreska pseudotaktowa	!	!	!	!	!	!LO:TX:t=P:problem=kreska pseudotaktowa	!	!	!	!	!
2C/	-to	-to	1c\	fa-	fa-	2G/	fa-	fa-	.	.	.
*custos:F	*Xij	*Xij	*	*	*	*	*	*	*	*	*
!LO:LB:g=original	!	!	!	!	!	!	!	!	!	!	!
=20-	=20-	=20-	=20-	=20-	=20-	=20-	=20-	=20-	=20-	=20-	=20-
*xywh-#315:7335,1703,6101,926	*	*	*	*	*	*	*	*	*	*	*
1F	fa-	fa-	.	.	.	2A/	.	-ctus	1f	-ctus	-ctus
!	!	!	!LO:SIC:o=(<1A	!	!	!	!	!	!	!	!
.	.	.	1A	-ctus	-ctus	2F/	-ctus	est	.	.	.
2F\	-ctus	-ctus	.	.	.	2A/	est	so-	1c	est	est
!	!	!	!LO:SIC:o=2G/)	!	!	!	!	!	!	!	!
!LO:TX:t=P:problem=kreska pseudotaktowa	!	!	!LO:TX:t=P:problem=kreska pseudotaktowa	!	!	!	!	!	!	!	!
2E\	.	est	2G	.	est	1c\	ſo-	.	.	.	.
=21-	=21-	=21-	=21-	=21-	=21-	=21-	=21-	=21-	=21-	=21-	=21-
!	!	!	!	!	!	!	!	!	!LO:TX:t=P:problem=kreska pseudotaktowa	!	!
1D	eſt	so-	1F	est	so-	.	.	.	1f	So-	so-
!	!	!	!	!	!	!LO:TX:t=P:problem=kreska pseudotaktowa	!	!	!	!	!
.	.	.	.	.	.	2B\	.	.	.	.	.
!	!	!	!	!	!	!LO:TX:t=P:problem=kreska pseudotaktowa	!	!	!	!	!
4C/	So-	-nus	2.G/	ſo-	-nus	1c	-nus	-nus	1e	-nus	-nus
4D/	.	.	.	.	.	.	.	.	.	.	.
4E\	.	.	.	.	.	.	.	.	.	.	.
!LO:TX:t=P:problem=kreska pseudotaktowa	!	!	!LO:TX:t=P:problem=kreska pseudotaktowa	!	!	!	!	!	!	!	!
4F\	.	.	4A/	.	.	.	.	.	.	.	.
=22-	=22-	=22-	=22-	=22-	=22-	=22-	=22-	=22-	=22-	=22-	=22-
2G\	.	.	2B\	-nus	.	2r	.	.	2d\	de	de
!	!	!	!	!	!	!LO:TX:t=P:problem=kreska pseudotaktowa	!	!	!	!	!
2.C/	-nus	de	2c\	de	de	2G/	ſo-	ſo-	2.e\	cae-	cae-
*	*	*	*lig	*	*	*	*	*	*	*	*
.	.	.	1G	cae-	cae-	2c\	-nus	-nus	.	.	.
4D/	.	.	.	.	.	.	.	.	4f\	.	.
!LO:TX:t=P:problem=kreska pseudotaktowa	!	!	!	!	!	!LO:TX:t=P:problem=kreska pseudotaktowa	!	!	!	!	!
2E\	de	.	.	.	.	2B\	de	de	1g\	.	.
=23-	=23-	=23-	=23-	=23-	=23-	=23-	=23-	=23-	=23-	=23-	=23-
1D	cae-	cae-	1A	.	.	1d	cae-	cae-	.	.	.
!	!	!	!	!	!	!	!	!	!LO:SIC:v:o=2f\	!	!
.	.	.	.	.	.	.	.	.	2f#i	.	.
!	!	!	!	!	!	!	!	!	!LO:TX:t=P:problem=kreska pseudotaktowa	!	!
*	*	*	*Xlig	*	*	*	*	*	*	*	*
!	!	!	!LO:TX:t=P:problem=kreska pseudotaktowa	!	!	!LO:TX:t=P:problem=kreska pseudotaktowa	!	!	!	!	!
2GG/	-lo	-lo	1G	-lo	-lo	1d	-lo	-lo	2g\	-lo	-lo
!LO:TX:t=P:problem=kreska pseudotaktowa	!	!	!	!	!	!	!	!	!	!	!
2G\	Al-	al-	.	.	.	.	.	.	2d\	Al-	al-
=24-	=24-	=24-	=24-	=24-	=24-	=24-	=24-	=24-	=24-	=24-	=24-
2C/	-le-	-le-	0c	Al-	al-	2r	.	.	2e\	-le-	-le-
!	!	!	!	!	!	!	!	!	!LO:TX:t=P:problem=kreska pseudotaktowa	!	!
2.F\	.	-lu-	.	.	.	2.A/	Al-	al-	2f\	-lu-	-lu-
*	*	*	*	*	*	*	*	*	*custos:c	*	*
*	*	*	*	*	*	*	*	*	*xywh-#65:7334,2349,6127,855	*	*
!	!	!	!	!	!	!	!	!	!LO:LB:g=original	!	!
.	.	.	.	.	.	.	.	.	4c/L	-ia	-ia
4E\	.	.	.	.	.	4B\	-le-	.	4d\	.	.
!	!	!	!	!	!	!LO:TX:t=P:problem=kreska pseudotaktowa	!	!	!	!	!
4C/	.	.	.	.	.	2c\	-lu-	.	4e\	.	.
!LO:TX:t=P:problem=kreska pseudotaktowa	!	!	!	!	!	!	!	!	!	!	!
4D/	.	.	.	.	.	.	.	.	4f\	.	.
*	*	*	*	*	*	*custos:G	*	*	*	*	*
!	!	!	!	!	!	!LO:PB:g=original	!	!	!	!	!
=25-	=25-	=25-	=25-	=25-	=25-	=25-	=25-	=25-	=25-	=25-	=25-
*	*	*	*	*	*	*xywh-#152:1172,547,6122,1042	*	*	*	*	*
4E\	.	.	0B	-le-	-le-	4G/	-ia	-le-	2g\	.	.
4F\	.	.	.	.	.	4A/	.	.	.	.	.
!LO:TX:t=P:problem=kreska pseudotaktowa	!	!	!	!	!	!	!	!	!LO:TX:t=P:problem=kreska pseudotaktowa	!	!
2G\	.	.	.	.	.	4B\	.	.	2d\	Al-	al-
.	.	.	.	.	.	4c\	.	.	.	.	.
*	*	*	*	*	*	*	*ij	*	*	*	*
4GG/	.	.	.	.	.	2d\	Al-	.	2.g\	-le-	-le-
4AA/	.	.	.	.	.	.	.	.	.	.	.
!	!	!	!	!	!	!LO:TX:t=P:problem=kreska pseudotaktowa	!	!	!	!	!
4BB/	.	.	.	.	.	2G/	-le-	-lu-	.	.	.
4C/	.	.	.	.	.	.	.	.	8f\L	.	.
.	.	.	.	.	.	.	.	.	8e\J	.	.
=26-	=26-	=26-	=26-	=26-	=26-	=26-	=26-	=26-	=26-	=26-	=26-
2D/	.	.	0A	-lu-	-lu-	2d\	-lu-	-ia	2f\	.	.
*	*	*	*	*	*	*	*	*ij	*	*	*
2.AA/	.	.	.	.	.	2c\	-ia	al-	2.e\	.	-lu-
.	.	.	.	.	.	2c\	Al-	-le-	.	.	.
4BB/	.	.	.	.	.	.	.	.	4d\	.	.
!	!	!	!	!	!	!LO:TX:t=P:problem=kreska pseudotaktowa	!	!	!	!	!
4C/	.	.	.	.	.	2c\	-le-	-lu-	4e\	-lu-	.
!LO:TX:t=P:problem=kreska pseudotaktowa	!	!	!	!	!	!	!	!	!LO:TX:t=P:problem=kreska pseudotaktowa	!	!
4D/	.	.	.	.	.	.	.	.	4f\	.	.
=27-	=27-	=27-	=27-	=27-	=27-	=27-	=27-	=27-	=27-	=27-	=27-
!	!	!	!LO:TX:t=P:problem=kreska pseudotaktowa	!	!	!	!	!	!	!	!
2E\	.	.	00G	-ia	-ia	2B\	-lu-	-ia	2g,<\	-ia	.
*custos:C	*	*	*	*	*	*	*	*Xij	*	*	*
*xywh-#315:7418,2307,6060,926	*	*	*	*	*	*	*	*	*	*ij	*
!LO:LB:g=original	!	!	!	!	!	!	!	!	!	!	!
1C	.	.	.	.	.	1e	-ia	al-	2g\	Al-	-ia
*	*	*	*	*	*	*	*Xij	*	*	*	*ij
.	.	.	.	.	.	.	.	.	2c/	-le-	al-
!LO:TX:t=P:problem=kreska pseudotaktowa	!	!	!	!	!	!LO:TX:t=P:problem=kreska pseudotaktowa	!	!	!LO:TX:t=P:problem=kreska pseudotaktowa	!	!
2BB/	.	.	.	.	.	2d\	A[l]-	-le-	2d\	-lu-	-le-
=28-	=28-	=28-	=28-	=28-	=28-	=28-	=28-	=28-	=28-	=28-	=28-
*lig	*	*	*	*	*	*	*	*	*	*	*
1C	-lu-	.	.	.	.	4c\	-le-	-lu-	2e\	-ia	-lu-
.	.	.	.	.	.	4d\	.	.	.	.	.
.	.	.	.	.	.	4e\	.	.	2.c/	Al-	.
.	.	.	.	.	.	4c\	.	.	.	.	.
!	!	!	!	!	!	!LO:TX:t=P:problem=kreska pseudotaktowa	!	!	!	!	!
1GG	.	.	.	.	.	1d	-lu-	.	.	.	.
.	.	.	.	.	.	.	.	.	8B/L	-le-	.
.	.	.	.	.	.	.	.	.	8A/J	.	.
!	!	!	!	!	!	!	!	!	!LO:TX:t=P:problem=kreska pseudotaktowa	!	!
.	.	.	.	.	.	.	.	.	2B/	-lu-	.
*Xlig	*	*	*	*	*	*	*	*	*	*	*
=29-	=29-	=29-	=29-	=29-	=29-	=29-	=29-	=29-	=29-	=29-	=29-
!LO:TX:t=P:problem=kreska pseudotaktowa	!	!	!	!	!	!	!	!	!LO:TX:t=P:problem=kreska pseudotaktowa	!	!
1C	-ia	-ia	2r	.	.	2G/	-ia	-ia	1c	-ia	-ia
*	*	*	*	*	*	*	*ij	*ij	*	*Xij	*Xij
.	.	.	1G	tan-	tan-	2c\	Al-	al-	.	.	.
2r	.	.	.	.	.	2B\	-le-	-le-	1r	.	.
!	!	!	!LO:TX:t=P:problem=kreska pseudotaktowa	!	!	!	!	!	!	!	!
1C/	tan-	tan-	2G/	-quam	-quam	2c\	-lu-	-lu-	.	.	.
=30-	=30-	=30-	=30-	=30-	=30-	=30-	=30-	=30-	=30-	=30-	=30-
!	!	!	!	!	!	!LO:TX:t=P:problem=kreska pseudotaktowa	!	!	!	!	!
.	.	.	2.c\	Spi-	spi-	1G	-ia	-ia	2r	.	.
*	*	*	*	*	*	*	*Xij	*Xij	*	*	*
!LO:TX:t=P:problem=kreska pseudotaktowa	!	!	!	!	!	!	!	!	!LO:TX:t=P:problem=kreska pseudotaktowa	!	!
2C/	-quam	-quam	.	.	.	.	.	.	2c/	tan-	tan-
.	.	.	4c\	-ri-	-ri-	.	.	.	.	.	.
!	!	!	!	!	!	!LO:MO:mod=1r	!	!	!	!	!
2.F\	Spi-	spi-	2A/	-tus	-tus	0r	.	.	2c/	-qua(m)	-quam
.	.	.	1d\	Ve-	ve-	.	.	.	2.f\	Spi-	spi-
4F\	-ri-	-ri-	.	.	.	.	.	.	.	.	.
=31-	=31-	=31-	=31-	=31-	=31-	=31-	=31-	=31-	=31-	=31-	=31-
!	!	!	!	!	!	!LO:MO:null:mod=0r	!	!	!	!	!
2D/	-tus	-tus	.	.	.	.	.	.	.	.	.
.	.	.	.	.	.	.	.	.	4f\	-ri-	-ri-
!	!	!	!LO:TX:t=P:problem=kreska pseudotaktowa	!	!	!	!	!	!LO:TX:t=P:problem=kreska pseudotaktowa	!	!
1G	Ve-	ve-	2d\	-he-	-he-	.	.	.	2d\	-t(us)	-tus
!	!	!	!	!	!	!LO:TX:t=P:problem=kreska pseudotaktowa	!	!	!	!	!
!	!	!	!	!	!	!LO:MO:mod=.	!	!	!	!	!
.	.	.	1B	-men-	-men-	1r	.	.	1.g	Ve-	ve-
!LO:TX:t=P:problem=kreska pseudotaktowa	!	!	!	!	!	!	!	!	!	!	!
2G\	-he-	-he-	.	.	.	.	.	.	.	.	.
=32-	=32-	=32-	=32-	=32-	=32-	=32-	=32-	=32-	=32-	=32-	=32-
!	!	!	!LO:TX:t=P:problem=kreska pseudotaktowa	!	!	!	!	!	!	!	!
1E	-men-	-men-	1G	-tis	-tis	2r	.	.	.	.	.
.	.	.	.	.	.	2G/	tan-	tan-	2g\	-he-	-he-
!LO:TX:t=P:problem=kreska pseudotaktowa	!	!	!	!	!	!	!	!	!	!	!
1C	-tis	-tis	2r	.	.	2G/	-quam	-quam	1.e	-men-	-men-
!	!	!	!LO:TX:t=P:problem=kreska pseudotaktowa	!	!	!LO:TX:t=P:problem=kreska pseudotaktowa, między nutą a kreską	!	!	!	!	!
.	.	.	2G/	tan-	tan-	2.c\	Spi-	spi-	.	.	.
*	*	*	*custos:A	*	*	*	*	*	*	*	*
!	!	!	!LO:LB:g=original	!	!	!	!	!	!	!	!
=33-	=33-	=33-	=33-	=33-	=33-	=33-	=33-	=33-	=33-	=33-	=33-
*	*	*	*xywh-#228:7277,2307,6011,1000	*	*	*	*	*	*	*	*
2r	.	.	2A/	-quam	-quam	.	.	.	.	.	.
.	.	.	.	.	.	4c\	-ri-	-ri-	.	.	.
*	*ij	*ij	*	*	*	*	*	*	*	*	*
!	!	!	!	!	!	!LO:TX:t=P:problem=kreska pseudotaktowa	!	!	!LO:TX:t=P:problem=kreska pseudotaktowa	!	!
1D	tan-	tan-	2.F/	Spi-	spi-	2A/	-tus	-tus	2d\	-tis	-tis
.	.	.	.	.	.	2d\	Ve-	ve-	2r	.	.
.	.	.	4F/	-ri-	-ri-	.	.	.	.	.	.
*	*	*	*	*	*	*	*	*	*	*ij	*ij
!LO:TX:t=P:problem=kreska pseudotaktowa	!	!	!LO:TX:t=P:problem=kreska pseudotaktowa	!	!	!LO:TX:t=P:problem=kreska pseudotaktowa	!	!	!	!	!
2D/	-quam	-quam	2A/	-tus	-tus	2d\	-he-	-he-	2d\	tan-	tan-
*	*	*	*	*	*	*custos:B	*	*	*	*	*
!	!	!	!	!	!	!LO:LB:g=original	!	!	!	!	!
=34-	=34-	=34-	=34-	=34-	=34-	=34-	=34-	=34-	=34-	=34-	=34-
*	*	*	*	*	*	*xywh-#152:1352,1238,5921,921	*	*	*	*	*
2.G\	Spi-	spi-	2G/	Ve-	ve-	1B	-men-	-men-	2d\	-quam	-quam
.	.	.	2.B\	.	-he-	.	.	.	2.g\	Spi-	spi-
4G\	-ri-	-ri-	.	.	.	.	.	.	.	.	.
!	!	!	!	!	!	!LO:TX:t=P:problem=kreska pseudotaktowa	!	!	!	!	!
2E\	-tus	-tus	.	.	.	1G	-tis	-tis	.	.	.
.	.	.	8A\L	.	.	.	.	.	4g\	-ri-	-ri-
.	.	.	8B\J	.	.	.	.	.	.	.	.
!LO:TX:t=P:problem=kreska pseudotaktowa	!	!	!	!	!	!	!	!	!LO:TX:t=P:problem=kreska pseudotaktowa	!	!
[2C/	Ve-	ve-	4c\	.	.	.	.	.	2e\	-tus	-tus
*	*	*	*	*	*	*	*	*	*	*Xij	*Xij
!	!	!	!LO:TX:t=P:problem=kreska pseudotaktowa	!	!	!	!	!	!	!	!
.	.	.	4d\	.	.	.	.	.	.	.	.
*	*	*	*	*	*	*	*	*	*custos:e	*	*
!	!	!	!	!	!	!	!	!	!LO:LB:g=original	!	!
=35-	=35-	=35-	=35-	=35-	=35-	=35-	=35-	=35-	=35-	=35-	=35-
*	*	*	*	*	*	*	*	*	*xywh-#65:7365,2909,6191,898	*	*
!LO:N:xstem:cue	!	!	!	!	!	!	!	!	!	!	!
4C/]	.	.	1e	.	.	2.c\	Spi-	spi-	2e\	Ve-	ve-
4D/	.	.	.	.	.	.	.	.	.	.	.
4E\	.	.	.	.	.	.	.	.	1g	-he-	-he-
!LO:TX:t=P:problem=kreska pseudotaktowa	!	!	!	!	!	!	!	!	!	!	!
4F\	.	.	.	.	.	4c\	-ri-	-ri-	.	.	.
2G\	.	.	2d\	-he-	-men-	2B\	-tus	-tus	.	.	.
!	!	!	!	!	!	!	!	!	!LO:SIC:v:o=2f\	!	!
2A\	-he-	-he-	1c\	.	.	4c\	Ve-	ve-	2f#i	.	.
!	!	!	!	!	!	!LO:TX:t=P:problem=kreska pseudotaktowa	!	!	!	!	!
.	.	.	.	.	.	4c\	-he-	-he-	.	.	.
=36-	=36-	=36-	=36-	=36-	=36-	=36-	=36-	=36-	=36-	=36-	=36-
1G	-men-	-men-	.	.	.	1d	-men-	-men-	1g	-men-	-men-
!	!	!	!LO:TX:t=P:problem=kreska pseudotaktowa	!	!	!	!	!	!	!	!
.	.	.	2B\	-men-	.	.	.	.	.	.	.
!LO:TX:t=P:problem=kreska pseudotaktowa	!	!	!	!	!	!	!	!	!	!	!
!LO:TX:a:mod= :t=2	!	!	!	!	!	!	!	!	!	!	!
!LO:TX:b:mod= :t=2	!	!	!	!	!	!LO:TX:t=P:problem=kreska pseudotaktowa	!	!	!LO:TX:t=P:problem=kreska pseudotaktowa	!	!
0C	-tis	-tis	2c,<\	-tis,	-tis	0.c	-tis	-tis	0e	-tis	-tis
*	*Xij	*Xij	*	*	*	*	*	*	*	*	*
.	.	.	1G/	et	et	.	.	.	.	.	.
=37-	=37-	=37-	=37-	=37-	=37-	=37-	=37-	=37-	=37-	=37-	=37-
.	.	.	.	.	.	.	.	.	.	.	.
!	!	!	!LO:TX:t=P:problem=kreska pseudotaktowa	!	!	!	!	!	!	!	!
.	.	.	2G/	re-	re-	.	.	.	.	.	.
2r	.	.	2A/	-ple-	-ple-	.	.	.	2r	.	.
1C/	et	et	2G/	-uit	-vit	.	.	.	1e\	et	et
=38-	=38-	=38-	=38-	=38-	=38-	=38-	=38-	=38-	=38-	=38-	=38-
!	!	!	!	!	!	!LO:TX:t=P:problem=kreska pseudotaktowa	!	!	!	!	!
.	.	.	4E/	to-	to-	00r	.	.	.	.	.
.	.	.	4F/	.	.	.	.	.	.	.	.
!LO:TX:t=P:problem=kreska pseudotaktowa	!	!	!	!	!	!	!	!	!LO:TX:t=P:problem=kreska pseudotaktowa	!	!
2C/	re-	re-	4G/	.	.	.	.	.	2e\	re-	re-
!	!	!	!LO:TX:t=P:problem=kreska pseudotaktowa	!	!	!	!	!	!	!	!
.	.	.	4E/	.	.	.	.	.	.	.	.
2D/	-ple-	-ple-	2F/	.	.	.	.	.	2d\	-ple-	-ple-
!LO:TX:t=P:problem=kreska pseudotaktowa	!	!	!	!	!	!	!	!	!	!	!
2C/	-uit	-vit	2G/	.	-tam	.	.	.	2e\	-uit	-vit
*custos:F	*	*	*	*	*	*	*	*	*	*	*
!LO:LB:g=original	!	!	!	!	!	!	!	!	!	!	!
=39-	=39-	=39-	=39-	=39-	=39-	=39-	=39-	=39-	=39-	=39-	=39-
*xywh-#315:7360,2952,6242,926	*	*	*	*	*	*	*	*	*	*	*
2F\	to-	to-	2A/	.	do-	.	.	.	2c/	to-	to-
!	!	!	!	!	!	!	!	!	!LO:TX:t=P:problem=kreska pseudotaktowa	!	!
2E\	-tam	-tam	1G	-tam	.	.	.	.	2c/	-tam	-tam
*	*	*	*	*	*	*	*	*	*lig	*	*
1D	do-	do-	.	.	.	.	.	.	1d	do-	do-
!	!	!	!LO:TX:t=P:problem=kreska pseudotaktowa	!	!	!	!	!	!	!	!
.	.	.	2F/	do-	.	.	.	.	.	.	.
=40-	=40-	=40-	=40-	=40-	=40-	=40-	=40-	=40-	=40-	=40-	=40-
!LO:TX:t=P:problem=kreska pseudotaktowa	!	!	!LO:TX:t=P:problem=kreska pseudotaktowa	!	!	!	!	!	!	!	!
1C	-mu(m)	-mum	1G	-mu(m)	-mum	2r	.	.	1e	.	.
.	.	.	.	.	.	1c	et	et	.	.	.
*	*	*	*	*	*	*	*	*	*Xlig	*	*
!	!	!	!	!	!	!	!	!	!LO:TX:t=P:problem=kreska pseudotaktowa	!	!
2r	.	.	2r	.	.	.	.	.	1A	-mum	-mum
*	*ij	*ij	*	*	*	*	*	*	*	*	*
!	!	!	!	!	!	!LO:TX:t=P:problem=kreska pseudotaktowa	!	!	!	!	!
1F\	et	et	1A\	et	et	2c\	re-	re-	.	.	.
=41-	=41-	=41-	=41-	=41-	=41-	=41-	=41-	=41-	=41-	=41-	=41-
.	.	.	.	.	.	2d\	-ple-	-ple-	0r	.	.
!LO:TX:t=P:problem=kreska pseudotaktowa	!	!	!LO:TX:t=P:problem=kreska pseudotaktowa	!	!	!	!	!	!	!	!
2F\	re-	re-	2A/	re-	re-	2c\	-uit	-vit	.	.	.
2G\	-ple-	-ple-	2B\	-ple-	-ple-	2B\	to-	to-	.	.	.
!	!	!	!LO:TX:t=P:problem=kreska pseudotaktowa	!	!	!LO:TX:t=P:problem=kreska pseudotaktowa	!	!	!	!	!
2F\	-uit	-vit	2c\	-uit	-vit	2A/	-tam	-tam	.	.	.
*	*	*	*custos:G	*	*	*	*	*	*	*	*
!	!	!	!LO:LB:g=original	!	!	!	!	!	!	!	!
=42-	=42-	=42-	=42-	=42-	=42-	=42-	=42-	=42-	=42-	=42-	=42-
*	*	*	*xywh-#228:7177,2891,6299,950	*	*	*	*	*	*	*	*
!	!	!	!	!	!	!	!	!	!LO:TX:t=P:problem=kreska pseudotaktowa	!	!
2E\	to-	to-	2G/	to-	to-	2B\	do-	do-	1r	.	.
2C/	-tam	-tam	1A	.	-tam	1c	.	.	.	.	.
1D	do-	do-	.	.	.	.	.	.	1.f	V-	u-
.	.	.	4G/	.	.	2B\	.	.	.	.	.
!	!	!	!LO:TX:t=P:problem=kreska pseudotaktowa	!	!	!	!	!	!	!	!
.	.	.	4F/	.	.	.	.	.	.	.	.
=43-	=43-	=43-	=43-	=43-	=43-	=43-	=43-	=43-	=43-	=43-	=43-
!LO:TX:t=P:problem=kreska pseudotaktowa	!	!	!	!	!	!	!	!	!	!	!
1C	-mum	-mum	2G/	-ta(m)	.	1c	.	.	.	.	.
*	*Xij	*Xij	*	*	*	*	*	*	*	*	*
.	.	.	1c	do-	do-	.	.	.	2e\	-bi	-bi
!	!	!	!	!	!	!LO:TX:t=P:problem=kreska pseudotaktowa	!	!	!LO:TX:t=P:problem=kreska pseudotaktowa	!	!
1r	.	.	.	.	.	0G	-mum	-mum	1d	e-	e-
!	!	!	!LO:TX:t=P:problem=kreska pseudotaktowa	!	!	!	!	!	!	!	!
.	.	.	2B\	.	.	.	.	.	.	.	.
=44-	=44-	=44-	=44-	=44-	=44-	=44-	=44-	=44-	=44-	=44-	=44-
1.C	V-	u-	2c\	-mu(m)	-mum	.	.	.	2.c/	-rant	-rant
.	.	.	2G/	to-	to-	.	.	.	.	.	.
.	.	.	.	.	.	.	.	.	4d\	.	.
.	.	.	2E/	-ta(m)	-tam	1r	.	.	2e\	Se-	.
!LO:TX:t=P:problem=kreska pseudotaktowa	!	!	!	!	!	!	!	!	!LO:TX:t=P:problem=kreska pseudotaktowa	!	!
2BB/	-bi	-bi	1G/	do-	do-	.	.	.	2d\	.	se-
=45-	=45-	=45-	=45-	=45-	=45-	=45-	=45-	=45-	=45-	=45-	=45-
1AA	e-	e-	.	.	.	2r	.	.	2.c/	-den-	-den-
.	.	.	2F/	.	.	1c	V-	u-	.	.	.
.	.	.	.	.	.	.	.	.	4d\	.	.
!	!	!	!LO:TX:t=P:problem=kreska pseudotaktowa	!	!	!	!	!	!	!	!
2GG/	-rant	-rant	1G	-mu(m),	-mum	.	.	.	2e\	.	.
!LO:TX:t=P:problem=kreska pseudotaktowa	!	!	!	!	!	!LO:TX:t=P:problem=kreska pseudotaktowa	!	!	!LO:TX:t=P:problem=kreska pseudotaktowa	!	!
2GG/	ſe-	ſe-	.	.	.	2B\	-bi	-bi	2d\	-tes	-tes
=46-	=46-	=46-	=46-	=46-	=46-	=46-	=46-	=46-	=46-	=46-	=46-
4AA/	-den-	-den-	1.c	V-	u-	1A	e-	e-	2r	.	.
4BB/	.	.	.	.	.	.	.	.	.	.	.
4C/	.	.	.	.	.	.	.	.	1e	V-	u-
!LO:TX:t=P:problem=kreska pseudotaktowa	!	!	!	!	!	!	!	!	!	!	!
4D/	.	.	.	.	.	.	.	.	.	.	.
4E\	.	.	.	.	.	2G/	-rant	-rant	.	.	.
4F\	.	.	.	.	.	.	.	.	.	.	.
!	!	!	!	!	!	!LO:TX:t=P:problem=kreska pseudotaktowa	!	!	!LO:TX:t=P:problem=kreska pseudotaktowa	!	!
2.G\	.	.	2B\	-bi	-bi	2G/	ſe-	ſe-	2d\	-bi	-bi
*	*	*	*	*	*	*custos:E	*	*	*	*	*
!	!	!	!	!	!	!LO:LB:g=original	!	!	!	!	!
=47-	=47-	=47-	=47-	=47-	=47-	=47-	=47-	=47-	=47-	=47-	=47-
*	*	*	*	*	*	*xywh-#152:1112,1839,6202,971	*	*	*	*	*
.	.	.	1A	e-	e-	1D	-den-	-den-	2.d\	e-	e-
!LO:SIC:v:o=8F\L	!	!	!	!	!	!	!	!	!	!	!
8F#iL	.	.	.	.	.	.	.	.	.	.	.
8E\J	.	.	.	.	.	.	.	.	.	.	.
!LO:SIC:v:o=2F\	!	!	!	!	!	!	!	!	!	!	!
!LO:TX:t=P:problem=kreska pseudotaktowa	!	!	!	!	!	!	!	!	!	!	!
2F#i	.	.	.	.	.	.	.	.	.	.	.
!	!	!	!	!	!	!	!	!	!LO:TX:t=P:problem=kreska pseudotaktowa	!	!
.	.	.	.	.	.	.	.	.	4c/	.	.
!LO:TX:t=P:problem=kreska pseudotaktowa	!	!	!	!	!	!	!	!	!	!	!
1G	-tes	-tes	2G/	-rant	-rant	2G/	-tes;	-tes	4B/	.	.
.	.	.	.	.	.	.	.	.	4A/	.	.
!	!	!	!LO:TX:t=P:problem=kreska pseudotaktowa	!	!	!	!	!	!	!	!
.	.	.	2G/	ſe-	ſe-	2.d\	V-	u-	2B/	.	.
=48-	=48-	=48-	=48-	=48-	=48-	=48-	=48-	=48-	=48-	=48-	=48-
2r	.	.	2.d\	-den-	-den-	.	.	.	2G/	-rant	-rant
.	.	.	.	.	.	4c\	.	.	.	.	.
*	*ij	*ij	*	*	*	*	*	*	*	*ij	*ij
1G	V-	u-	.	.	.	4B\	.	.	1d	V-	u-
!	!	!	!	!	!	!LO:TX:t=P:problem=kreska pseudotaktowa	!	!	!	!	!
.	.	.	4c\	.	.	4A/	.	.	.	.	.
.	.	.	2B\	.	.	2G/	.	.	.	.	.
!LO:TX:t=P:problem=kreska pseudotaktowa	!	!	!LO:TX:t=P:problem=kreska pseudotaktowa	!	!	!	!	!	!LO:TX:t=P:problem=kreska pseudotaktowa	!	!
2F\	-bi	-bi	2A/	.	.	2A/	-bi	-bi	2d\	-bi	-bi
*	*	*	*	*	*	*	*	*	*custos:e	*	*
!	!	!	!	!	!	!	!	!	!LO:LB:g=original	!	!
=49-	=49-	=49-	=49-	=49-	=49-	=49-	=49-	=49-	=49-	=49-	=49-
*	*	*	*	*	*	*	*	*	*xywh-#65:7429,3500,6222,1056	*	*
1E	e-	e-	2G/	-tes	-tes	2B\	e-	e-	2e\	e-	e-
*	*	*	*	*ij	*ij	*	*	*	*	*	*
!	!	!	!	!	!	!LO:TX:t=P:problem=kreska pseudotaktowa	!	!	!LO:TX:t=P:problem=kreska pseudotaktowa	!	!
.	.	.	2B\	V-	u-	2G/	-rant	-rant	2g\	-rant	-rant
*	*	*	*	*	*	*	*	*	*	*Xij	*Xij
2D/	-rant	-rant	2d\	-bi	-bi	1A	ſe-	ſe-	2f\	Se-	se-
!LO:TX:t=P:problem=kreska pseudotaktowa	!	!	!LO:TX:t=P:problem=kreska pseudotaktowa	!	!	!	!	!	!	!	!
2AA/	ſe-	ſe-	2c\	e-	e-	.	.	.	2.e\	-den-	-den-
=50-	=50-	=50-	=50-	=50-	=50-	=50-	=50-	=50-	=50-	=50-	=50-
*lig	*	*	*	*	*	*	*	*	*	*	*
1E	-den-	-den-	2B\	-rant	-rant	4G/	-den-	-den-	.	.	.
.	.	.	.	.	.	4A/	.	.	4f\	.	.
.	.	.	2G/	ſe-	ſe-	4B\	.	.	1g	.	.
!	!	!	!	!	!	!LO:TX:t=P:problem=kreska pseudotaktowa	!	!	!	!	!
.	.	.	.	.	.	4c\	.	.	.	.	.
1D	.	.	1A	-den-	-den-	1d	.	.	.	.	.
!	!	!	!	!	!	!	!	!	!LO:SIC:v:o=2f\	!	!
!	!	!	!	!	!	!	!	!	!LO:TX:t=P:problem=kreska pseudotaktowa	!	!
.	.	.	.	.	.	.	.	.	2f#i	.	.
*custos:GG	*	*	*	*	*	*	*	*	*	*	*
*Xlig	*	*	*	*	*	*	*	*	*	*	*
!LO:LB:g=original	!	!	!	!	!	!	!	!	!	!	!
=51-	=51-	=51-	=51-	=51-	=51-	=51-	=51-	=51-	=51-	=51-	=51-
*xywh-#315:7281,3482,6399,1149	*	*	*	*	*	*	*	*	*	*	*
2GG,</	-tes	-tes	2G/	-tes	-tes	2.B\	.	-tes	2g,<\	-tes	-tes
*	*Xij	*Xij	*	*Xij	*Xij	*	*	*	*	*	*
!LO:TX:t=P:problem=kreska pseudotaktowa	!	!	!LO:TX:t=P:problem=kreska pseudotaktowa	!	!	!	!	!	!	!	!
2G\	Al-	al-	2G/	Al-	al-	.	.	.	2d\	Al-	al-
!	!	!	!	!	!	!LO:TX:t=P:problem=kreska pseudotaktowa	!	!	!	!	!
.	.	.	.	.	.	4c\	.	.	.	.	.
*	*	*	*custos:A	*	*	*	*	*	*	*	*
*	*	*	*lig	*	*	*	*	*	*	*	*
*	*	*	*xywh-#228:7336,3535,6110,990	*	*	*	*	*	*	*	*
!	!	!	!LO:LB:g=original	!	!	!	!	!	!	!	!
2D/	-le-	-le-	1A	-le-	-le-	2d,<\	-tes	.	1f	-le-	-le-
!LO:TX:t=P:problem=kreska pseudotaktowa	!	!	!	!	!	!	!	!	!	!	!
2F\	-lu-	-lu-	.	.	.	2.c\	Al-	al-	.	.	.
=52-	=52-	=52-	=52-	=52-	=52-	=52-	=52-	=52-	=52-	=52-	=52-
!	!	!	!	!	!	!	!	!	!LO:TX:t=P:problem=kreska pseudotaktowa	!	!
4C/	.	-ia	1c	.	.	.	.	.	1e	-lu-	-lu-
4D/	.	.	.	.	.	4B\	.	.	.	.	.
4E\	.	.	.	.	.	4G/	-le-	.	.	.	.
!	!	!	!	!	!	!LO:TX:t=P:problem=kreska pseudotaktowa	!	!	!	!	!
4F\	.	.	.	.	.	4A/	.	.	.	.	.
*	*	*	*Xlig	*	*	*	*	*	*	*	*
2G\	-ia	.	1B	-lu-	-lu-	4B\	.	.	2d\	-ia	-ia
.	.	.	.	.	.	4c\	.	.	.	.	.
*	*	*ij	*	*	*	*	*	*	*	*ij	*ij
!LO:TX:t=P:problem=kreska pseudotaktowa	!	!	!	!	!	!	!	!	!	!	!
2GG/	.	al-	.	.	.	1d\	-lu-	.	2g\	Al-	al-
=53-	=53-	=53-	=53-	=53-	=53-	=53-	=53-	=53-	=53-	=53-	=53-
*	*ij	*	*	*	*	*	*	*	*	*	*
!	!	!	!LO:TX:t=P:problem=kreska pseudotaktowa	!	!	!	!	!	!	!	!
2D/	Al-	-le-	1A,<	-ia	-ia	.	.	.	2f\	-le-	-le-
!	!	!	!	!	!	!LO:TX:t=P:problem=kreska pseudotaktowa	!	!	!	!	!
2D/	-le-	-lu-	.	.	.	2d\	-ia	-le-	2d\	-lu-	-lu-
*	*	*	*	*	*	*	*ij	*	*	*	*
!	!	!	!	!	!	!	!	!	!LO:TX:t=P:problem=kreska pseudotaktowa	!	!
2C/	-lu-	-ia	1c	Al-	al-	2G/	Al-	-lu-	1e	-ia	-ia
*	*	*	*	*	*	*	*	*	*	*Xij	*Xij
!LO:TX:t=P:problem=kreska pseudotaktowa	!	!	!	!	!	!	!	!	!	!	!
2AA/	.	al-	.	.	.	2A/	.	.	.	.	.
=54-	=54-	=54-	=54-	=54-	=54-	=54-	=54-	=54-	=54-	=54-	=54-
2.E\	.	-le-	1B	-le-	-le-	2B\	-le-	-ia	2r	.	.
*	*	*	*	*	*	*	*	*ij	*	*	*
!	!	!	!	!	!	!LO:TX:t=P:problem=kreska pseudotaktowa	!	!	!	!	!
.	.	.	.	.	.	2G/	.	al-	2e\	Al-	al-
4D/	.	.	.	.	.	.	.	.	.	.	.
2C/	.	.	1A	-lu-	-lu-	2c\	-lu-	-le-	2e\	-le-	-le-
*	*	*	*	*	*	*custos:A	*	*	*	*	*
*	*	*	*	*	*	*xywh-#152:1383,2441,5962,951	*	*	*	*	*
!	!	!	!	!	!	!LO:LB:g=original	!	!	!	!	!
!LO:TX:t=P:problem=kreska pseudotaktowa	!	!	!	!	!	!LO:TX:t=P:problem=kreska pseudotaktowa	!	!	!LO:TX:t=P:problem=kreska pseudotaktowa	!	!
2D/	.	-lu-	.	.	.	2A/	.	-lu-	2f\	-lu-	-lu-
=55-	=55-	=55-	=55-	=55-	=55-	=55-	=55-	=55-	=55-	=55-	=55-
!	!	!	!LO:TX:t=P:problem=kreska pseudotaktowa	!	!	!	!	!	!	!	!
2GG/	-ia	-ia	1G	-ia	-ia	2B\	-ia	-ia	2g\	-ia	-ia
*	*Xij	*Xij	*	*	*	*	*Xij	*Xij	*	*ij	*ij
2.C/	Al-	al-	.	.	.	2.c\	Al-	al-	1e	Al-	al-
.	.	.	1c	Al-	al-	.	.	.	.	.	.
4D/	.	.	.	.	.	4B\	.	.	.	.	.
!	!	!	!	!	!	!LO:TX:t=P:problem=kreska pseudotaktowa, między nutą a kropką	!	!	!LO:TX:t=P:problem=kreska pseudotaktowa	!	!
4E\	.	.	.	.	.	2.G/	.	.	2e\	-le-	-le-
!LO:TX:t=P:problem=kreska pseudotaktowa	!	!	!	!	!	!	!	!	!	!	!
4F\	.	.	.	.	.	.	.	.	.	.	.
=56-	=56-	=56-	=56-	=56-	=56-	=56-	=56-	=56-	=56-	=56-	=56-
2G\	.	.	2B\	.	-le-	.	.	.	2d\	-lu-	-lu-
.	.	.	.	.	.	4A/	.	.	.	.	.
2E\	-le-	-le-	2G/	-le-	-lu-	4B\	.	.	2.g\	.	.
.	.	.	.	.	.	4c\	.	.	.	.	.
!LO:TX:t=P:problem=kreska pseudotaktowa	!	!	!LO:TX:t=P:problem=kreska pseudotaktowa	!	!	!	!	!	!	!	!
1D	-lu-	-lu-	1A	-lu-	.	2d\	.	.	.	.	.
!	!	!	!	!	!	!	!	!	!LO:SIC:v:o=8f\L	!	!
.	.	.	.	.	.	.	.	.	8f#iL	.	.
.	.	.	.	.	.	.	.	.	8e\J	.	.
!	!	!	!	!	!	!LO:TX:t=P:problem=kreska pseudotaktowa	!	!	!LO:SIC:v:o=2f\	!	!
.	.	.	.	.	.	2A/	-le-	-le-	2f#i	.	.
=57-	=57-	=57-	=57-	=57-	=57-	=57-	=57-	=57-	=57-	=57-	=57-
!	!	!	!	!	!	!	!	!	!LO:TX:t=P:problem=kreska pseudotaktowa	!	!
2GG/	-ia	-ia	0G	-ia	.	2.d\	.	-lu-	1g	-ia	-ia
*	*ij	*ij	*	*	*	*	*	*	*	*Xij	*Xij
2.G\	Al-	al-	.	.	.	.	.	.	.	.	.
.	.	.	.	.	.	4c\	.	.	.	.	.
.	.	.	.	.	.	4B\	.	.	2r	.	.
4F\	.	.	.	.	.	4A/	-lu-	.	.	.	.
!	!	!	!	!	!	!LO:TX:t=P:problem=kreska pseudotaktowa	!	!	!	!	!
4E\	.	.	.	.	.	2G/	-ia	-ia	2.g\	Al-	al-
!LO:TX:t=P:problem=kreska pseudotaktowa	!	!	!	!	!	!	!	!	!	!	!
4D/	.	.	.	.	.	.	.	.	.	.	.
=58-	=58-	=58-	=58-	=58-	=58-	=58-	=58-	=58-	=58-	=58-	=58-
*	*	*	*	*ij	*	*	*	*	*	*	*
!	!	!	!LO:SIC:o=0G	!	!	!	!	!	!	!	!
1.C	.	.	[0G	Al-	-ia.	2.c\	Al-	al-	.	.	.
.	.	.	.	.	.	.	.	.	4f\	.	.
.	.	.	.	.	.	.	.	.	4e\	.	.
!	!	!	!	!	!	!	!	!	!LO:TX:t=P:problem=kreska pseudotaktowa	!	!
.	.	.	.	.	.	4d\	.	.	4d\	.	.
.	.	.	.	.	.	2e\	-le-	.	2c/	.	.
!	!	!	!	!	!	!LO:TX:t=P:problem=kreska pseudotaktowa	!	!	!	!	!
2GG/	-le-	-le-	.	.	.	2d\	.	-le-	2B/	-le-	-le-
=59-	=59-	=59-	=59-	=59-	=59-	=59-	=59-	=59-	=59-	=59-	=59-
!LO:TX:t=P:problem=kreska pseudotaktowa	!	!	!LO:SIC:o=[0Gl	!	!	!	!	!	!LO:TX:t=P:problem=kreska pseudotaktowa	!	!
0C	-lu-	-lu-	0G_	-leluia	.	0c	-lu-	-lu-	0e	-lu-	-lu-
*	*	*	*	*Xij	*	*	*	*	*	*	*
=60-	=60-	=60-	=60-	=60-	=60-	=60-	=60-	=60-	=60-	=60-	=60-
!	!	!	!LO:SIC:o=0G]	!	!	!LO:SIC:o=0Bl	!	!	!	!	!
!LO:TX:b:mod= :t=AMDG.	!	!	!LO:TX:b:mod= :t=AMDG. GMDH.	!	!	!LO:TX:b:mod= :t=AMDG	!	!	!LO:TX:b:mod= :t=A.M.D.G.	!	!
0GG;	-ia	-ia.	0G;]	.	.	0B;	-ia	-ia.	0dl;	-ia	-ia.
*	*Xij	*Xij	*	*	*	*	*	*	*	*	*
==	==	==	==	==	==	==	==	==	==	==	==
*-	*-	*-	*-	*-	*-	*-	*-	*-	*-	*-	*-
!!!system-decoration: [*]
!!LO:MO:ori
!!!RDF**kern: < = below
!!!RDF**kern: l = terminal long
!!LO:MO:mod
!! !!!RDF**kern: i = editorial accidental
!!LO:MO:end
!!!filter-modern: shed -e "s/^(\d+[\/\\]right)/$1yy/I" | shed -e "s/LO:N:/LO:n:$1/L" | shed -k -e "s/,</$1/D" | shed -e "s/TX(.*):t=P:/tx$1:t=P:/LG" | shed -e "s/^custos:/Xcustos:/I" | sic -sq | modori -m | autostem -r | tie -s | humtr -p | shed -e "s/-//B"
!!!ENC: Andrzej Kubiczek
!!!END: 2021-03-03
!!!EED: Marta Lawrence
!!!EEV: 2021-03-20
!!!ENC-modern: Andrzej Kubiczek
!!!END-modern: 2023-07-28
!!!ENC-iiif: Bartosz Żurakowski
!!!END-iiif: 2022-09-19
